_inc/images/systems/logos/alg.svg

<svg viewBox="0 0 3839 1883.4" xmlns="http://www.w3.org/2000/svg">
    <path class="st25" style="fill:#fff" d="m588 1494.5-197.3-156.8h278.2l148.6-267.1v267.1h426.4V0L0 1883.4h363.1z"/>
    <path class="st25" style="fill:#fff" d="m828.3 1543.1 91.2 271.3h324.4v-271.3zM3839 1367.9v-11.5l-2658.2-6.9-58.3 25.5zm0 38.9v-11.5l-2746.6-7.2-59.4 26zm0 38.8v-11.4l-2835-7.4-60.4 26.4zm0 38.9v-11.4l-2923.5-7.6-61.4 26.9zm-3014.8 46.8 3014.8-7.9V1512l-3011.9-7.9-10.3 4.6zM1459.7 950v359.3h-121.5V685.6h164.1l52 287.2 54.5-287.2h152v623.7h-122.6V950l-60.9 359.3h-54.5L1459.7 950Zm356.8 359.4V685.6h215.1V777H1951v148.4h74.9v92.5H1951v201.8h80.7v89.6h-215.2Zm271.9 0V685.6h154.1c66.9 0 109.6 7.4 128 22.3 18.4 14.8 27.6 50.3 27.6 106.4v64.8c0 45.3-4.6 75.6-13.6 90.8-9.1 15.3-49.3 27-73.1 35.3 23 6.5 63 17.2 72.5 32 9.5 14.9 14.2 37.9 14.2 69.1v203.1h-130.2v-214.3c0-13-2.2-21.8-6.5-26.3s-17.7-6.8-29.6-6.8h-8v247.3h-135.4Zm179.5-406.9v-92c0-16.7-2-26.9-6-30.7-4-3.8-12.1-5.7-24.3-5.7h-13.2v172c1.7 0 4.1.2 7.3.4 3.1.3 5.4.4 6.8.4 11.4 0 19.2-1.8 23.3-5.5 4.1-3.6 6.2-10.6 6.2-20.8v-18.1Zm193.2 406.9V685.6h134.4v623.7h-134.4Zm197.3-497.7c0-58.1 8.6-94.2 25.7-108.2 17.2-14 68.5-29.6 136.9-29.6 69.9 0 104.8 16.1 121.7 31.2 16.9 15 25.4 50.6 25.4 106.7v86.9h-135.5v-83.1c0-12-1.5-20.2-4.6-24.4-3-4.3-15.2-6.4-23.5-6.4-6.3 0-10.8 1.9-13.3 5.6-2.5 3.8-3.8 12.2-3.8 25.2V1179c0 11.5 1.4 19.6 4.4 24.4 2.9 4.7 7.9 7.1 15 7.1 6.1 0 17.3-1.8 20.7-5.4 3.4-3.6 5.1-8.7 5.1-15.2v-146.1h135.5v139c0 57.5-8.7 93.7-26.1 108.6-17.4 14.9-51.5 31.2-119.9 31.2-69.2 0-121.1-16.5-138.1-31.8s-25.6-51.3-25.6-108V811.7Zm330.1 497.7 102.9-623.7h163.5l73.1 623.7h-116.1l-13.7-110h-69.4l-10.2 110h-130.1Zm160.8-223.7h42.5l-21.1-240.8-21.4 240.8Zm207.9 223.7V685.6h125.4l67.1 255.7V685.6h117.2v623.7h-108l-85.6-305.7v305.7h-116.1Zm-1997 482.9v-186.9h-22v209h150.5v-22.1zm770.9-164.8v-22.1h-162.2v209h162.2v-22.1h-140.2v-72.4h135.2v-22.1h-135.2v-70.3zm1314.7 0v-22.1h-162.2v209h162.2v-22.1h-140.1v-72.4h135.1v-22.1h-135.1v-70.3zm-1141.4 47.9c.3 0 .6-.1.9-.1-2.8-.1-4.6-.2-4.6-.2 1.2.1 2.4.3 3.7.3Z"/>
    <path class="st25" d="M2320.7 1723.6c18.4-5.3 31.7-19.3 31.7-35.9v-44c0-21.1-21.5-38.2-47.9-38.2h-138.3v208.9h22.1v-81.1h117.5c14.3 0 25.9 18.4 25.9 29.8v51.4h22.1v-54.7c-.2-17-14.1-31.2-33.1-36.2Zm-16.3-12.4c-.9 0-77.6-.1-116.2 0v-83.8c37.4-.3 110.4-1 116.2-1 14.3 0 25.9 9.2 25.9 20.6v37.4c0 11.4-11.6 26.8-25.9 26.8Zm-672.6-105.8h-26.5l-98.1 208.9h24.4l20.4-43.4h133.2l20.4 43.4h24.4l-98.2-208.9Zm-69.5 143.5 56.2-119.8 56.2 119.8h-112.4Zm1292.5-143.5h-26.5l-98.1 208.9h24.4l20.4-43.4h133.2l20.4 43.4h24.4l-98.2-208.9Zm-69.5 143.5 56.2-119.8 56.2 119.8h-112.4Zm-851.9-83.4v-21.9c0-21.1-21.5-38.2-47.9-38.2h-92.7c-26.5 0-47.9 17.1-47.9 38.2v40.5c0 21.1 21.5 38.2 47.9 38.2h92.8c14.3 0 25.9 9.2 25.9 20.6v28.6c0 11.4-11.6 20.7-25.9 20.7h-92.8c-14.3 0-25.9-9.2-25.9-20.7v-22.7h-22.1v27.2c0 21.1 21.5 38.2 47.9 38.2h92.8c26.5 0 47.9-17.1 47.9-38.2v-37.6c0-21.1-21.5-38.2-47.9-38.2h-92.8c-14.3 0-25.9-9.2-25.9-20.6V1648c0-11.4 11.6-20.7 25.9-20.7h92.8c14.3 0 25.9 9.3 25.9 20.7v17.4h22Zm1733.5 0v-21.9c0-21.1-21.5-38.2-47.9-38.2h-92.7c-26.5 0-47.9 17.1-47.9 38.2v40.5c0 21.1 21.4 38.2 47.9 38.2h92.8c14.3 0 25.9 9.2 25.9 20.6v28.6c0 11.4-11.6 20.7-25.9 20.7h-92.8c-14.3 0-25.9-9.2-25.9-20.7v-22.7h-22.1v27.2c0 21.1 21.4 38.2 47.9 38.2h92.8c26.5 0 47.9-17.1 47.9-38.2v-37.6c0-21.1-21.5-38.2-47.9-38.2h-92.8c-14.3 0-25.9-9.2-25.9-20.6V1648c0-11.4 11.6-20.7 25.9-20.7h92.8c14.3 0 25.9 9.3 25.9 20.7v17.4h22Zm-961.8 0v-21.9c0-21.1-21.5-38.2-47.9-38.2h-107.8c-26.5 0-47.9 17.1-47.9 38.2v132.5c0 21.1 21.5 38.2 47.9 38.2h107.8c26.5 0 47.9-17.1 47.9-38.2v-65H2598v22.1h85.1v38.4c0 11.4-11.6 20.7-25.9 20.7h-107.8c-14.3 0-25.9-9.2-25.9-20.7v-123.5c0-11.4 11.6-20.7 25.9-20.7h107.8c14.3 0 25.9 9.3 25.9 20.7v17.4h22Zm502.8-60.1-99.3 179.9-99.4-179.9h-33.7v208.4h22.1v-183.9l101.8 184.5h18.3l101.9-184.5v183.9h22v-208.4z" style="fill:#fff"/>
</svg>

<?xml version="1.0" encoding="utf-8"?>
<svg version="1.1" viewBox="0 0 3839 1883.4" xmlns="http://www.w3.org/2000/svg">
  <polygon class="st25" points="588 1494.5 390.7 1337.7 668.9 1337.7 817.5 1070.6 817.5 1337.7 1243.9 1337.7 1243.9 0 0 1883.4 363.1 1883.4" style="fill: rgb(255, 255, 255);"/>
  <polygon class="st25" points="828.3 1543.1 919.5 1814.4 1243.9 1814.4 1243.9 1543.1" style="fill: rgb(255, 255, 255);"/>
  <polygon class="st25" points="3839 1367.9 3839 1356.4 1180.8 1349.5 1122.5 1375" style="fill: rgb(255, 255, 255);"/>
  <polygon class="st25" points="3839 1406.8 3839 1395.3 1092.4 1388.1 1033 1414.1" style="fill: rgb(255, 255, 255);"/>
  <polygon class="st25" points="3839 1445.6 3839 1434.2 1004 1426.8 943.6 1453.2" style="fill: rgb(255, 255, 255);"/>
  <polygon class="st25" points="3839 1484.5 3839 1473.1 915.5 1465.5 854.1 1492.4" style="fill: rgb(255, 255, 255);"/>
  <polygon class="st25" points="824.2 1531.3 3839 1523.4 3839 1512 827.1 1504.1 816.8 1508.7" style="fill: rgb(255, 255, 255);"/>
  <path class="st25" d="M 1459.7 950 L 1459.7 1309.3 L 1338.2 1309.3 L 1338.2 685.6 L 1502.3 685.6 L 1554.3 972.8 L 1608.8 685.6 L 1760.8 685.6 L 1760.8 1309.3 L 1638.2 1309.3 L 1638.2 950 L 1577.3 1309.3 L 1522.8 1309.3 L 1459.7 950 Z" style="fill: rgb(255, 255, 255);"/>
  <path class="st25" d="M 1816.5 1309.4 L 1816.5 685.6 L 2031.6 685.6 L 2031.6 777 L 1951 777 L 1951 925.4 L 2025.9 925.4 L 2025.9 1017.9 L 1951 1017.9 L 1951 1219.7 L 2031.7 1219.7 L 2031.7 1309.3 L 1816.5 1309.3 Z" style="fill: rgb(255, 255, 255);"/>
  <path class="st25" d="M 2088.4 1309.4 L 2088.4 685.6 L 2242.5 685.6 C 2309.4 685.6 2352.1 693 2370.5 707.9 C 2388.9 722.7 2398.1 758.2 2398.1 814.3 L 2398.1 879.1 C 2398.1 924.4 2393.5 954.7 2384.5 969.9 C 2375.4 985.2 2335.2 996.9 2311.4 1005.2 C 2334.4 1011.7 2374.4 1022.4 2383.9 1037.2 C 2393.4 1052.1 2398.1 1075.1 2398.1 1106.3 L 2398.1 1309.4 L 2267.9 1309.4 L 2267.9 1095.1 C 2267.9 1082.1 2265.7 1073.3 2261.4 1068.8 C 2257.1 1064.3 2243.7 1062 2231.8 1062 L 2223.8 1062 L 2223.8 1309.3 L 2088.4 1309.3 Z M 2267.9 902.5 L 2267.9 810.5 C 2267.9 793.8 2265.9 783.6 2261.9 779.8 C 2257.9 776 2249.8 774.1 2237.6 774.1 L 2224.4 774.1 L 2224.4 946.1 C 2226.1 946.1 2228.5 946.3 2231.7 946.5 C 2234.8 946.8 2237.1 946.9 2238.5 946.9 C 2249.9 946.9 2257.7 945.1 2261.8 941.4 C 2265.9 937.8 2268 930.8 2268 920.6 L 2268 902.5 Z" style="fill: rgb(255, 255, 255);"/>
  <path class="st25" d="M 2461.1 1309.4 L 2461.1 685.6 L 2595.5 685.6 L 2595.5 1309.3 L 2461.1 1309.3 Z" style="fill: rgb(255, 255, 255);"/>
  <path class="st25" d="M 2658.4 811.7 C 2658.4 753.6 2667 717.5 2684.1 703.5 C 2701.3 689.5 2752.6 673.9 2821 673.9 C 2890.9 673.9 2925.8 690 2942.7 705.1 C 2959.6 720.1 2968.1 755.7 2968.1 811.8 L 2968.1 898.7 L 2832.6 898.7 L 2832.6 815.6 C 2832.6 803.6 2831.1 795.4 2828 791.2 C 2825 786.9 2812.8 784.8 2804.5 784.8 C 2798.2 784.8 2793.7 786.7 2791.2 790.4 C 2788.7 794.2 2787.4 802.6 2787.4 815.6 L 2787.4 1179 C 2787.4 1190.5 2788.8 1198.6 2791.8 1203.4 C 2794.7 1208.1 2799.7 1210.5 2806.8 1210.5 C 2812.9 1210.5 2824.1 1208.7 2827.5 1205.1 C 2830.9 1201.5 2832.6 1196.4 2832.6 1189.9 L 2832.6 1179 L 2832.6 1043.8 L 2968.1 1043.8 L 2968.1 1182.8 C 2968.1 1240.3 2959.4 1276.5 2942 1291.4 C 2924.6 1306.3 2890.5 1322.6 2822.1 1322.6 C 2752.9 1322.6 2701 1306.1 2684 1290.8 C 2667 1275.5 2658.4 1239.5 2658.4 1182.8 L 2658.4 811.7 Z" style="fill: rgb(255, 255, 255);"/>
  <path class="st25" d="M 2988.5 1309.4 L 3091.4 685.7 L 3254.9 685.7 L 3328 1309.4 L 3211.9 1309.4 L 3198.2 1199.4 L 3128.8 1199.4 L 3118.6 1309.4 L 2988.5 1309.4 Z M 3149.3 1085.7 L 3191.8 1085.7 L 3170.7 844.9 L 3149.3 1085.7 Z" style="fill: rgb(255, 255, 255);"/>
  <path class="st25" d="M 3357.2 1309.4 L 3357.2 685.6 L 3482.6 685.6 L 3549.7 941.3 L 3549.7 685.6 L 3666.9 685.6 L 3666.9 1309.3 L 3558.9 1309.3 L 3473.3 1003.6 L 3473.3 1309.3 L 3357.2 1309.3 Z" style="fill: rgb(255, 255, 255);"/>
  <polygon class="st25" points="1360.2 1792.3 1360.2 1605.4 1338.2 1605.4 1338.2 1814.4 1488.7 1814.4 1488.7 1792.3" style="fill: rgb(255, 255, 255);"/>
  <polygon class="st25" points="2131.1 1627.5 2131.1 1605.4 1968.9 1605.4 1968.9 1814.4 2131.1 1814.4 2131.1 1792.3 1990.9 1792.3 1990.9 1719.9 2126.1 1719.9 2126.1 1697.8 1990.9 1697.8 1990.9 1627.5" style="fill: rgb(255, 255, 255);"/>
  <polygon class="st25" points="3445.8 1627.5 3445.8 1605.4 3283.6 1605.4 3283.6 1814.4 3445.8 1814.4 3445.8 1792.3 3305.7 1792.3 3305.7 1719.9 3440.8 1719.9 3440.8 1697.8 3305.7 1697.8 3305.7 1627.5" style="fill: rgb(255, 255, 255);"/>
  <path class="st25" d="M 2304.4 1675.4 C 2304.7 1675.4 2305 1675.3 2305.3 1675.3 C 2302.5 1675.2 2300.7 1675.1 2300.7 1675.1 C 2301.9 1675.2 2303.1 1675.4 2304.4 1675.4 Z" style="fill: rgb(255, 255, 255);"/>
  <path class="st25" d="M 2320.7 1723.6 C 2339.1 1718.3 2352.4 1704.3 2352.4 1687.7 L 2352.4 1643.7 C 2352.4 1622.6 2330.9 1605.5 2304.5 1605.5 L 2166.2 1605.5 L 2166.2 1814.4 L 2188.3 1814.4 L 2188.3 1733.3 L 2305.8 1733.3 C 2320.1 1733.3 2331.7 1751.7 2331.7 1763.1 L 2331.7 1814.5 L 2353.8 1814.5 L 2353.8 1759.8 C 2353.6 1742.8 2339.7 1728.6 2320.7 1723.6 Z M 2304.4 1711.2 C 2303.5 1711.2 2226.8 1711.1 2188.2 1711.2 L 2188.2 1627.4 C 2225.6 1627.1 2298.6 1626.4 2304.4 1626.4 C 2318.7 1626.4 2330.3 1635.6 2330.3 1647 L 2330.3 1684.4 C 2330.3 1695.8 2318.7 1711.2 2304.4 1711.2 Z" style="fill: rgb(255, 255, 255);"/>
  <path class="st25" d="M 1631.8 1605.4 L 1605.3 1605.4 L 1507.2 1814.3 L 1531.6 1814.3 L 1552 1770.9 L 1685.2 1770.9 L 1705.6 1814.3 L 1730 1814.3 L 1631.8 1605.4 Z M 1562.3 1748.9 L 1618.5 1629.1 L 1674.7 1748.9 L 1562.3 1748.9 Z" style="fill: rgb(255, 255, 255);"/>
  <path class="st25" d="M 2854.8 1605.4 L 2828.3 1605.4 L 2730.2 1814.3 L 2754.6 1814.3 L 2775 1770.9 L 2908.2 1770.9 L 2928.6 1814.3 L 2953 1814.3 L 2854.8 1605.4 Z M 2785.3 1748.9 L 2841.5 1629.1 L 2897.7 1748.9 L 2785.3 1748.9 Z" style="fill: rgb(255, 255, 255);"/>
  <path class="st25" d="M 1933.4 1665.5 L 1933.4 1643.6 C 1933.4 1622.5 1911.9 1605.4 1885.5 1605.4 C 1883.1 1605.4 1878.4 1605.4 1878.4 1605.4 C 1878.4 1605.4 1800.1 1605.4 1792.8 1605.4 C 1766.3 1605.4 1744.9 1622.5 1744.9 1643.6 L 1744.9 1684.1 C 1744.9 1705.2 1766.4 1722.3 1792.8 1722.3 C 1792.8 1722.3 1882 1722.3 1885.6 1722.3 C 1899.9 1722.3 1911.5 1731.5 1911.5 1742.9 L 1911.5 1771.5 C 1911.5 1782.9 1899.9 1792.2 1885.6 1792.2 C 1885.6 1792.2 1807.1 1792.2 1792.8 1792.2 C 1778.5 1792.2 1766.9 1783 1766.9 1771.5 L 1766.9 1748.8 L 1744.8 1748.8 L 1744.8 1776 C 1744.8 1797.1 1766.3 1814.2 1792.7 1814.2 C 1794.8 1814.2 1799.6 1814.2 1799.6 1814.2 C 1799.6 1814.2 1878 1814.2 1885.5 1814.2 C 1912 1814.2 1933.4 1797.1 1933.4 1776 L 1933.4 1738.4 C 1933.4 1717.3 1911.9 1700.2 1885.5 1700.2 L 1792.7 1700.2 C 1778.4 1700.2 1766.8 1691 1766.8 1679.6 L 1766.8 1648 C 1766.8 1636.6 1778.4 1627.3 1792.7 1627.3 C 1805.8 1627.3 1885.5 1627.3 1885.5 1627.3 C 1899.8 1627.3 1911.4 1636.6 1911.4 1648 L 1911.4 1665.4 L 1933.4 1665.4 Z" style="fill: rgb(255, 255, 255);"/>
  <path class="st25" d="M 3666.9 1665.5 L 3666.9 1643.6 C 3666.9 1622.5 3645.4 1605.4 3619 1605.4 C 3616.6 1605.4 3611.9 1605.4 3611.9 1605.4 C 3611.9 1605.4 3533.6 1605.4 3526.3 1605.4 C 3499.8 1605.4 3478.4 1622.5 3478.4 1643.6 L 3478.4 1684.1 C 3478.4 1705.2 3499.8 1722.3 3526.3 1722.3 C 3526.3 1722.3 3615.5 1722.3 3619.1 1722.3 C 3633.4 1722.3 3645 1731.5 3645 1742.9 L 3645 1771.5 C 3645 1782.9 3633.4 1792.2 3619.1 1792.2 C 3619.1 1792.2 3540.6 1792.2 3526.3 1792.2 C 3512 1792.2 3500.4 1783 3500.4 1771.5 L 3500.4 1748.8 L 3478.3 1748.8 L 3478.3 1776 C 3478.3 1797.1 3499.7 1814.2 3526.2 1814.2 C 3528.3 1814.2 3533.1 1814.2 3533.1 1814.2 C 3533.1 1814.2 3611.5 1814.2 3619 1814.2 C 3645.5 1814.2 3666.9 1797.1 3666.9 1776 L 3666.9 1738.4 C 3666.9 1717.3 3645.4 1700.2 3619 1700.2 L 3526.2 1700.2 C 3511.9 1700.2 3500.3 1691 3500.3 1679.6 L 3500.3 1648 C 3500.3 1636.6 3511.9 1627.3 3526.2 1627.3 C 3539.3 1627.3 3619 1627.3 3619 1627.3 C 3633.3 1627.3 3644.9 1636.6 3644.9 1648 L 3644.9 1665.4 L 3666.9 1665.4 Z" style="fill: rgb(255, 255, 255);"/>
  <path class="st25" d="M 2705.1 1665.5 L 2705.1 1643.6 C 2705.1 1622.5 2683.6 1605.4 2657.2 1605.4 L 2549.4 1605.4 C 2522.9 1605.4 2501.5 1622.5 2501.5 1643.6 L 2501.5 1776.1 C 2501.5 1797.2 2523 1814.3 2549.4 1814.3 L 2657.2 1814.3 C 2683.7 1814.3 2705.1 1797.2 2705.1 1776.1 L 2705.1 1711.1 L 2598 1711.1 L 2598 1733.2 L 2683.1 1733.2 L 2683.1 1771.6 C 2683.1 1783 2671.5 1792.3 2657.2 1792.3 L 2549.4 1792.3 C 2535.1 1792.3 2523.5 1783.1 2523.5 1771.6 L 2523.5 1648.1 C 2523.5 1636.7 2535.1 1627.4 2549.4 1627.4 L 2657.2 1627.4 C 2671.5 1627.4 2683.1 1636.7 2683.1 1648.1 L 2683.1 1665.5 L 2705.1 1665.5 Z" style="fill: rgb(255, 255, 255);"/>
  <polygon class="st25" points="3207.9 1605.4 3108.6 1785.3 3009.2 1605.4 2975.5 1605.4 2975.5 1813.8 2997.6 1813.8 2997.6 1629.9 3099.4 1814.4 3117.7 1814.4 3219.6 1629.9 3219.6 1813.8 3241.6 1813.8 3241.6 1605.4" style="fill: rgb(255, 255, 255);"/>
</svg>
